X:1
T:Bi de Chüene of der Alp. Eb
S:Naturjodel rund um den Saentis (www.roothuus-gonten.ch)
%%partsbox
P:ABCB
Q:1/4=58
R:Naturjodel
M:6/4
L:1/8
K:Eb %  (%%MIDI gchordon) 
[P:A] [M:4/4] (3BAB || (c2c/)B/A/G/ F2B2 | "Eb"G4B,2B2 | "Bb7"F4B,2B2 | "Eb"G4 !fermata!B,2 (3BAB | 
w: Ja a la  la_a la la la-a  o ja o  o ja la  o ja ja a la 
(c2c/)B/A/G/ F2B2 | "Eb"G4B,2  (3B=AB | [M:6/4] "Bb7"c3BA2B,2D2F2 | [M:4/4] "Eb"E6c2 |] 
w: la_a la la la-a  o ja ja la la    la-a du ja dio ho  la la 
P:B
Q:1/4=64
L:1/4
[M:6/4] "Bb7"c>B A B,/B,/ Dc | "Eb"c>BG B,/B,/E c/c/ | "Bb7"c>BA B,/B,/D c/c/ | 
w: da la du ja li dam u  da-a du ja li dam  u li da-a du ja li dam u li
"Eb"c>BGB,/B,/ !breath! !fermata!E c | "Bb7"c>BA B,/B,/Dc | "Eb"c>BG B,/B,/ Ec | 
w: da-a du ja li dam la  da-a du ja li dam u  da-a du ja li dam u 
"Bb7"c>B=A "rit."B fg | "Eb"e4zz |]  
w: du-u du ja u u  u 
P:C
Q:1/4=146
L:1/8
[M:3/4] Bc Bc Bc | "Bb7"A2DCB,2 | Bc Bc BA | "Eb"G2 EC B,2 | Bc Bc Bc | 
w: du-li a-li a-li  du du-li dam  u-li du-li du-li  du u-li dam  du-li a-li a-li 
"Bb7"A2DC B,2 | Bc Bc Bf | "Eb"e4z2 || Bc Bc B[cg] | "Bb7"[Aa]2 [Dd][Cc] [B,B]2 Bc Bc B[ca] |
w: du du-li dam  u-li du-li du-u  u  du-li du-li du-(u  u u-li a)  du-li du-li du-(u 
"Eb"[Gg]2 [Ee][Cc] [B,B]2 | Bc Bc B[cg] | "Bb7"[Aa]2 [Dd][Cc] [B,B]2 | "rit."Bc Bc Bf | "Eb"e6 |] 
w: u u-li am)  du-li du-li du-(u  u u-li am)  u-li du-li d-u  u
W:
%W:Parts: ABCB
W: trad. Toggenburg
W: Nach Jodler Emil Hartmann (Schlaborzi)
W: Schellackplatte Columbia DZ 150 JK Ebnat-Kappel (1929)
W: 
W: Sehr speziell ist die hohe Brust - oder Falsett - Lage von Emil Hartmann. 
W: Die Überstimme, die auch als 1. Stimme gesungen wird, stammt von Ruedi Oberteufer.
W: 
W:https://www.roothuus-gonten.ch/mediendateien/jodel/pdf/Bi de Chüene of der Alp.pdf
W: *AUDIO*:  www.roothuus-gonten.ch/cms/index.php/de/naturjodel-rund-um-den-saentis
% © 2015 ROOTHUUS GONTEN. #1251.10
% Mar 04, 2019 (Güdismontag) 

